!!!OTL: Die Passion aus den vier Evangelisten.
!!!ARE: Europa, Mitteleuropa, Deutschland
!!!SCT: A0543B
!!!TXL: @@DE
!!!YEM: Copyright 1995, estate of Helmut Schaffrath.
**kern	**text
!! Mixed meters:  4/2; 6/2
*M6/2yy	*
*k[]	*
*clefC4	*
*G:ion	*
!LO:TX:a:t=jon. G.	!
{2G	Wolt
=1	=1
*M4/2	*
2G	ihr
2d	hö-
2B	-ren
2G	ein
=2	=2
*M6/2	*
*lig	*
2A	new
2d	.
2e	.
1d	.
*Xlig	*
2c#i	ge-
=3	=3
*M4/2	*
1d	-dicht
2r}	.
{2d	aus
=4	=4
*M6/2	*
1B	der
2c	Bi-
1d	-be-
2d	-li-
=5	=5
1c	-ſchen
2B	ge-
1A}	-ſchicht
{2G	von
=6	=6
1B	vn-
2c	-ſerm
1d	Her-
2d	-ren
=7	=7
1c	Je-
2B	-ſum
1A}	Chriſt,
{2G	der
=8	=8
1B	al-
2c	-ler
1d	Welt
2c	ein
=9	=9
*lig	*
2B	Schöpf-
4A/	.
4G	.
*Xlig	*
2A/	-fer
1G}	iſt.
==	==
!!!GTL: Geistliche Volkslieder
!!!AGN: Romanze, Ballade, Lied, religioeses Lied
!! Dresdner Gsgb. 1593
!!!ONB: ESAC (Essen Associative Code) Database: ALTDEU
!!!AMT: irregular
!!!AIN: vox
!!!EED: Helmut Schaffrath
!!!EEV: 1.0
!!!RDF**kern: i = editorial accidental
!!!RDF**kern: l = terminal long
!!!AMD: Ionian
!!!URL-scan: https://rosdok.uni-rostock.de/mcrviewer/recordIdentifier/rosdok_ppn738218359/iview2/phys_0725.iview2?x=-495.6391625615763&y=250.57142855320126&scale=0.4629418472063854&rotation=0&layout=singlePageLayout&logicalDiv=log_0007
!!!ENC: Anna Maria Matuszewska
!!!EEV: 2024/20/03
*-	*-
